X:1
T:Title
%%score 1 2
L:1/8
Q:1/4=95
M:4/4
K:F
V:1 treble nm="Grand Piano, Soprano"
V:2 bass nm="Choir Pad, Christmas Day Song"
V:1
 C>C [CF]2 C>C [CF]2 | C>C [CF]>[EG] [FA]>[GB] [Ac]2 | [FA]>[Fc] [Fd][Fd] [FB]>[Fd] [Fc]2 | %3
w: By~C.~E.~Hecht * * * * *|||
 [FA]>[FA] [EG]>[EG] [FA]>[EG] [EG]2 | C>C [CF]2 C>C [CF]2 | C>C [CF]>[EG] [FA]>[GB] [Ac]2 | %6
w: |||
 [G^c]2 [Fd]2 [FB]>[DG] [CF]2 | [CE]>[EG] [EG]4 F2- | F2 [FB]2 [FB]2 [FA]2- | %9
w: |||
 [FA][FA] [DG]2 [DF]2 [EG]2- | [EG]2 [FB]2 [FB]>[FB] [FA]2- | [FA][FA] [FG]2 [F=B]2 [Ec]2 | %12
w: |||
 C>C [CF]2 C>C [CF]2 | C>C [CF]>[EG] [FA]>[GB] [Ac]2 | [G^c]2 [Fd]2 [FB]>[DG] [CF]2 | %15
w: |||
 [CE]>[EG] [EG]4 F2- | F6 z2 |] %17
w: ||
V:2
 [F,A,]>[F,A,] [F,A,]2 [F,A,]>[F,A,] [F,A,]2 | [F,A,]>[F,A,] [F,A,]>[C,C] [F,C]>[F,C] [F,C]2 | %2
 [F,C]>[F,A,] [B,,B,][B,,B,] [D,B,]>[B,,B,] [F,A,]2 | [F,C]>[F,C] [C,C]>[C,C] [C,C]>[C,C] [C,C]2 | %4
 [C,B,]>[E,G,] [F,A,]2 [F,A,]>[F,A,] [F,A,]2 | [F,A,]>[F,A,] [F,A,]>[C,C] [F,C]>[F,C] [F,C]2 | %6
 [E,A,]2 [D,A,]2 [D,B,]>[B,,B,] [C,B,]2 | [C,G,]>[C,B,] [C,B,]4 [F,A,]2- | %8
 [F,A,]2 [D,B,]2 [D,B,]2 [C,C]2- | [C,C][C,C] [G,=B,]2 [G,B,]2 [C,C]2- | %10
 [C,C]2 [^C,B,]2 [C,B,]>[C,B,] [=C,C]2- | [C,C][C,C] [G,=B,]2 [G,D]2 [C,C]2 | %12
 [F,A,]>[F,A,] [F,A,]2 [F,A,]>[F,A,] [F,A,]2 | [F,A,]>[F,A,] [F,A,]>[C,C] [F,C]>[F,C] [F,C]2 | %14
 [E,A,]2 [D,A,]2 [D,B,]>[B,,B,] [C,A,]2 | [C,G,]>B, [C,B,]4 [F,A,]2- | [F,A,]6 z2 |] %17

